svgs/rboard_creator.svg

<svg xmlns="http://www.w3.org/2000/svg" viewBox="0 0 192 192"><path d="M33.446 136.335a3.786 3.786 0 0 1 3.787-3.786h7.5a3.786 3.786 0 0 1 3.786 3.786v7.673a3.786 3.786 0 0 1-3.786 3.787h-7.5a3.786 3.786 0 0 1-3.787-3.787Zm15.827 27.443a3.787 3.787 0 0 1 3.787-3.787h85.88a3.787 3.787 0 0 1 3.787 3.787v8.436A3.786 3.786 0 0 1 138.94 176H53.06a3.786 3.786 0 0 1-3.787-3.786Zm15.845-31.229a3.786 3.786 0 0 0-3.786 3.786v7.673a3.786 3.786 0 0 0 3.786 3.787h7.5a3.786 3.786 0 0 0 3.787-3.787v-7.673a3.786 3.786 0 0 0-3.787-3.786Zm50.477 3.786a3.786 3.786 0 0 1 3.786-3.786h7.501a3.787 3.787 0 0 1 3.787 3.786v7.673a3.787 3.787 0 0 1-3.787 3.787h-7.501a3.786 3.786 0 0 1-3.786-3.787Zm31.672-3.786a3.787 3.787 0 0 0-3.787 3.786v7.673a3.787 3.787 0 0 0 3.787 3.787h7.5a3.786 3.786 0 0 0 3.787-3.787v-7.673a3.786 3.786 0 0 0-3.787-3.786ZM33.446 108.858a3.786 3.786 0 0 1 3.787-3.786h7.5a3.786 3.786 0 0 1 3.786 3.786v7.674a3.786 3.786 0 0 1-3.786 3.786h-7.5a3.786 3.786 0 0 1-3.787-3.786Zm113.821-3.786a3.787 3.787 0 0 0-3.787 3.786v7.674a3.787 3.787 0 0 0 3.787 3.786h7.5a3.786 3.786 0 0 0 3.787-3.786v-7.674a3.786 3.786 0 0 0-3.787-3.786Z"/><path d="M140.168 102.514a19.741 19.741 0 0 0 7.08-15.146V16H72.841c-15.515 0-28.093 12.577-28.093 28.092v43.364a19.741 19.741 0 0 0 6.969 15.052l40.488 34.354a5.314 5.314 0 0 0 6.847.025ZM59.933 79.018v10.547h35.758l36.371-.067v-10.48Zm72.129-15.185V31.185h-6.833v18.222a7.593 7.593 0 0 1-15.185 0V31.185h-6.834V36.5a7.592 7.592 0 1 1-15.184 0v-5.315H72.841c-7.129 0-12.908 5.779-12.908 12.907v19.741Z" fill-rule="evenodd"/></svg>

<svg
    xmlns="http://www.w3.org/2000/svg"
    viewBox="0 0 192 192"
    id="vector">
    <g id="group">
        <path
            id="path"
            d="M 33.446 136.335 C 33.446 134.244 35.141 132.549 37.233 132.549 L 44.733 132.549 C 46.824 132.549 48.519 134.244 48.519 136.335 L 48.519 144.008 C 48.519 146.1 46.824 147.795 44.733 147.795 L 37.233 147.795 C 35.141 147.795 33.446 146.1 33.446 144.008 Z M 49.273 163.778 C 49.273 161.687 50.968 159.991 53.06 159.991 L 138.94 159.991 C 141.032 159.991 142.727 161.687 142.727 163.778 L 142.727 172.214 C 142.727 174.305 141.032 176 138.94 176 L 53.06 176 C 50.968 176 49.273 174.305 49.273 172.214 Z M 65.118 132.549 C 63.027 132.549 61.332 134.244 61.332 136.335 L 61.332 144.008 C 61.332 146.1 63.027 147.795 65.118 147.795 L 72.618 147.795 C 74.71 147.795 76.405 146.1 76.405 144.008 L 76.405 136.335 C 76.405 134.244 74.71 132.549 72.618 132.549 Z M 115.595 136.335 C 115.595 134.244 117.29 132.549 119.381 132.549 L 126.882 132.549 C 128.973 132.549 130.669 134.244 130.669 136.335 L 130.669 144.008 C 130.669 146.1 128.973 147.795 126.882 147.795 L 119.381 147.795 C 117.29 147.795 115.595 146.1 115.595 144.008 Z M 147.267 132.549 C 145.176 132.549 143.48 134.244 143.48 136.335 L 143.48 144.008 C 143.48 146.1 145.176 147.795 147.267 147.795 L 154.767 147.795 C 156.859 147.795 158.554 146.1 158.554 144.008 L 158.554 136.335 C 158.554 134.244 156.859 132.549 154.767 132.549 Z M 33.446 108.858 C 33.446 106.767 35.141 105.072 37.233 105.072 L 44.733 105.072 C 46.824 105.072 48.519 106.767 48.519 108.858 L 48.519 116.532 C 48.519 118.623 46.824 120.318 44.733 120.318 L 37.233 120.318 C 35.141 120.318 33.446 118.623 33.446 116.532 Z M 147.267 105.072 C 145.176 105.072 143.48 106.767 143.48 108.858 L 143.48 116.532 C 143.48 118.623 145.176 120.318 147.267 120.318 L 154.767 120.318 C 156.859 120.318 158.554 118.623 158.554 116.532 L 158.554 108.858 C 158.554 106.767 156.859 105.072 154.767 105.072 Z"
            fill="#000000"
            stroke-width="12"/>
        <path
            id="path_1"
            d="M 140.168 102.514 C 144.655 98.763 147.248 93.216 147.248 87.368 L 147.248 16 L 72.841 16 C 57.326 16 44.748 28.577 44.748 44.092 L 44.748 87.456 C 44.748 93.253 47.297 98.758 51.717 102.508 L 92.205 136.862 C 94.177 138.536 97.068 138.546 99.052 136.887 Z M 59.933 79.018 L 59.933 89.565 L 95.691 89.565 L 132.062 89.498 L 132.062 79.018 Z M 132.062 63.833 L 132.062 31.185 L 125.229 31.185 L 125.229 49.407 C 125.229 53.6 121.829 57 117.637 57 C 113.443 57 110.044 53.6 110.044 49.407 L 110.044 31.185 L 103.21 31.185 L 103.21 36.5 C 103.21 40.693 99.811 44.092 95.618 44.092 C 91.425 44.092 88.026 40.693 88.026 36.5 L 88.026 31.185 L 72.841 31.185 C 65.712 31.185 59.933 36.964 59.933 44.092 L 59.933 63.833 Z"
            fill="#000000"
            stroke-width="12"
            fill-rule="evenodd"/>
    </g>
</svg>
